X: 24920
T: Maid At The Well, The
R: jig
M: 6/8
K: Dmajor
|:GFG E2 D|GAB c2 e|dee dBG|AGE EDE|
GFG E2 D|GAB c2 e|dee dBG|AGF G3:|
|:gdd edd|gdB c2e|dee dBG|AGE EDE|
gdd edd|gdB c2e|dee dBG|AGF G3:|
|:GFG E2 D|GAB c2 e|dee dBG|AGE EDE|
GFG E2 D|GAB c2 e|dee dBG|AGF G3:|
|:gdd edd|gdB c2 e|ded gdB|ABc def|
gdd edd|gdB c2 e|ded B3|AGF G3:|
d2 A BAB|def a3|aba f2 e|dBB gfe|
d2 A BAB|def a3|aba f2 e|fdc d2:|
faa fab|afe fef|aba f2 e|dBB gfe|
d2 A BAB|def a3|aba f2 e|fdc d2:|

